assets/img/braze_icons/user-01.svg

<svg fill="none" height="24" viewBox="0 0 24 24" width="24" xmlns="http://www.w3.org/2000/svg"><g clip-rule="evenodd" fill="#801ed7" fill-rule="evenodd"><path d="m8.78597 14.5c2.14263.0005 4.28533.0005 6.42793 0 .7267-.0002 1.2219-.0003 1.6543.076 2.0701.365 3.6908 1.9857 4.0558 4.0558.0762.4324.0761.9275.076 1.6542-.0001.1584.0048.3178-.0228.4745-.1095.621-.5958 1.1072-1.2168 1.2167-.1361.024-.2796.0233-.351.0229-4.9391-.0265-9.87978-.0265-14.81893 0-.07136.0004-.21482.0011-.35099-.0229-.62101-.1095-1.10723-.5957-1.21674-1.2167-.02762-.1567-.02276-.3161-.0228-.4745-.00016-.7267-.00027-1.2218.07598-1.6542.36501-2.0701 1.98574-3.6908 4.05579-4.0558.43241-.0763.92758-.0762 1.65426-.076z"/><path d="m6.49996 7.5c0-3.03757 2.46243-5.5 5.50004-5.5 3.0375 0 5.5 2.46243 5.5 5.5 0 3.0376-2.4625 5.5-5.5 5.5-3.03761 0-5.50004-2.4624-5.50004-5.5z"/></g></svg>

<svg width="24" height="24" viewBox="0 0 24 24" fill="none" xmlns="http://www.w3.org/2000/svg">
<path fill-rule="evenodd" clip-rule="evenodd" d="M8.78597 14.5C10.9286 14.5005 13.0713 14.5005 15.2139 14.5C15.9406 14.4998 16.4358 14.4997 16.8682 14.576C18.9383 14.941 20.559 16.5617 20.924 18.6318C21.0002 19.0642 21.0001 19.5593 21 20.286C20.9999 20.4444 21.0048 20.6038 20.9772 20.7605C20.8677 21.3815 20.3814 21.8677 19.7604 21.9772C19.6243 22.0012 19.4808 22.0005 19.4094 22.0001C14.4703 21.9736 9.52962 21.9736 4.59047 22.0001C4.51911 22.0005 4.37565 22.0012 4.23948 21.9772C3.61847 21.8677 3.13225 21.3815 3.02274 20.7605C2.99512 20.6038 2.99998 20.4444 2.99994 20.286C2.99978 19.5593 2.99967 19.0642 3.07592 18.6318C3.44093 16.5617 5.06166 14.941 7.13171 14.576C7.56412 14.4997 8.05929 14.4998 8.78597 14.5Z" fill="#801ED7"/>
<path fill-rule="evenodd" clip-rule="evenodd" d="M6.49996 7.5C6.49996 4.46243 8.96239 2 12 2C15.0375 2 17.5 4.46243 17.5 7.5C17.5 10.5376 15.0375 13 12 13C8.96239 13 6.49996 10.5376 6.49996 7.5Z" fill="#801ED7"/>
</svg>
